svgs/light/signal-good.svg

<svg xmlns="http://www.w3.org/2000/svg" viewBox="0 0 576 512"><!-- Font Awesome Pro 6.0.0-alpha2 by @fontawesome - https://fontawesome.com License - https://fontawesome.com/license (Commercial License) --><path d="M32 384C23.156 384 16 391.156 16 400V496C16 504.844 23.156 512 32 512S48 504.844 48 496V400C48 391.156 40.844 384 32 384ZM160 288C151.156 288 144 295.156 144 304V496C144 504.844 151.156 512 160 512S176 504.844 176 496V304C176 295.156 168.844 288 160 288ZM288 192C279.156 192 272 199.156 272 208V496C272 504.844 279.156 512 288 512S304 504.844 304 496V208C304 199.156 296.844 192 288 192Z"/></svg>

<svg xmlns="http://www.w3.org/2000/svg" viewBox="0 0 576 512"><!--! Font Awesome Pro 6.3.0 by @fontawesome - https://fontawesome.com License - https://fontawesome.com/license (Commercial License) Copyright 2023 Fonticons, Inc. --><path d="M32 384C23.16 384 16 391.2 16 400v96c0 8.844 7.156 16 15.1 16S48 504.8 48 496v-96C48 391.2 40.84 384 32 384zM160 288C151.2 288 144 295.2 144 304v192C144 504.8 151.2 512 160 512s16-7.156 16-16v-192C176 295.2 168.8 288 160 288zM288 192C279.2 192 272 199.2 272 208v288c0 8.844 7.156 16 16 16s16-7.156 16-16v-288C304 199.2 296.8 192 288 192z"/></svg>
